outputs/icons/social/blog_sharp.svg

<svg xmlns="http://www.w3.org/2000/svg" width="1200" height="1200" fill="none"><g fill="#000" clip-path="url(#a)"><path d="M1099.745 781.72A752.892 752.892 0 0 0 418.36 100.255a62.71 62.71 0 0 0-68.36 62.5 62.596 62.596 0 0 0 56.836 62.5c301.134 27.05 541.014 266.855 567.969 567.97a62.61 62.61 0 0 0 20.215 40.55 62.62 62.62 0 0 0 42.285 16.285c8.71 0 17.32-1.815 25.29-5.33a62.6 62.6 0 0 0 20.995-15.075 62.7 62.7 0 0 0 13.125-22.265 62.6 62.6 0 0 0 3.03-25.67"/><path fill-rule="evenodd" d="M347.441 600A248.93 248.93 0 0 0 225 633.44V412.481a62.5 62.5 0 0 0-62.5-62.5 62.5 62.5 0 0 0-62.5 62.5V849.98a250.002 250.002 0 1 0 500-1.76C599.045 710.43 485.234 598.615 347.441 600m-85.829 338.39A125 125 0 0 1 225 850c0-24.725 7.331-48.89 21.066-69.445a125 125 0 0 1 56.098-46.04 125.04 125.04 0 0 1 72.222-7.115 125.03 125.03 0 0 1 64.002 34.21 125.01 125.01 0 0 1 27.096 136.225 125 125 0 0 1-46.038 56.1 125 125 0 0 1-157.834-15.545"/><path d="M834.395 725.74c.33 1.235 1.835 7.5 2.285 9.455a503 503 0 0 1 8.3 43.87 62.385 62.385 0 0 1-61.935 70.915 62.5 62.5 0 0 1-40.9-15.26 62.5 62.5 0 0 1-20.935-38.315 373.6 373.6 0 0 0-12.46-55.935c-.04-.12-.35-1.095-.74-2.34-.52-1.64-1.185-3.75-1.585-4.985a375.43 375.43 0 0 0-115.22-170.285 375.4 375.4 0 0 0-187.63-84.071A62.5 62.5 0 0 1 350 416.953a62.4 62.4 0 0 1 21.319-47.177 62.387 62.387 0 0 1 49.599-14.834 500.26 500.26 0 0 1 262.267 122.186 500.26 500.26 0 0 1 150.76 246.952c.04.155.085.3.125.445.115.405.225.8.325 1.215"/></g><defs><clipPath id="a"><path fill="#fff" d="M0 0h1200v1200H0z"/></clipPath></defs></svg>

<svg width="1200" height="1200" viewBox="0 0 1200 1200" fill="none" xmlns="http://www.w3.org/2000/svg"><g clip-path="url(#clip0_788_2019)"><path fill-rule="evenodd" d="M1099.745 781.72C1083.77 606.385 1006.855 442.19 882.365 317.688C757.875 193.186 593.695 116.25 418.36 100.255C409.68 99.47 400.932 100.503 392.673 103.288C384.416 106.073 376.829 110.549 370.397 116.43C363.965 122.31 358.829 129.466 355.317 137.443C351.805 145.419 349.994 154.04 350 162.755C349.958 178.388 355.768 193.471 366.286 205.037C376.803 216.603 391.269 223.815 406.836 225.255C707.97 252.305 947.85 492.11 974.805 793.225C976.245 808.79 983.455 823.255 995.02 833.775C1006.585 844.29 1021.67 850.1 1037.305 850.06C1046.015 850.06 1054.625 848.245 1062.595 844.73C1070.565 841.22 1077.715 836.085 1083.59 829.655C1089.465 823.225 1093.935 815.64 1096.715 807.39C1099.5 799.135 1100.53 790.395 1099.745 781.72ZM347.441 600C304.424 600.38 262.239 611.9 225 633.435V412.481C225 395.905 218.415 380.007 206.694 368.286C194.973 356.565 179.076 349.981 162.5 349.981C145.924 349.981 130.027 356.565 118.306 368.286C106.585 380.007 100 395.905 100 412.481V849.98C100.233 916.285 126.796 979.78 173.845 1026.5C220.893 1073.22 284.575 1099.335 350.879 1099.1C417.183 1098.87 480.678 1072.305 527.4 1025.255C574.115 978.205 600.235 914.525 600 848.22C599.045 710.43 485.234 598.615 347.441 600ZM261.612 938.39C238.169 914.945 225 883.15 225 850C225 825.275 232.331 801.11 246.066 780.555C259.802 759.995 279.324 743.975 302.164 734.515C325.005 725.055 350.139 722.58 374.386 727.4C398.633 732.225 420.906 744.13 438.388 761.61C455.87 779.095 467.774 801.365 472.598 825.615C477.421 849.86 474.946 874.995 465.484 897.835C456.023 920.675 440.002 940.2 419.446 953.935C398.89 967.67 374.722 975 350 975C316.848 975 285.053 961.83 261.612 938.39ZM834.395 725.74C834.725 726.975 836.23 733.24 836.68 735.195C840.105 749.74 842.87 764.36 844.98 779.065C846.2 787.905 845.51 796.905 842.955 805.455C840.4 814.005 836.04 821.91 830.17 828.63C824.3 835.355 817.055 840.74 808.925 844.42C800.795 848.105 791.97 850 783.045 849.98C768.02 849.975 753.5 844.555 742.145 834.72C730.79 824.88 723.355 811.28 721.21 796.405C718.495 777.47 714.33 758.77 708.75 740.47C708.71 740.35 708.4 739.375 708.01 738.135C707.49 736.49 706.825 734.38 706.425 733.145C684.61 666.765 644.71 607.795 591.205 562.86C537.705 517.92 472.722 488.807 403.575 478.789C388.703 476.644 375.102 469.212 365.263 457.856C355.424 446.5 350.006 431.979 350 416.953C349.969 408.023 351.857 399.188 355.534 391.05C359.212 382.911 364.595 375.656 371.319 369.776C378.043 363.897 385.95 359.531 394.507 356.971C403.064 354.412 412.07 353.72 420.918 354.942C518.47 368.949 609.705 411.456 683.185 477.128C756.665 542.8 809.115 628.71 833.945 724.08C833.985 724.235 834.03 724.38 834.07 724.525C834.185 724.93 834.295 725.325 834.395 725.74Z" fill="#1D1E23"/></g><defs><clipPath id="clip0_788_2019"><path width="24" fill="white" d="M0 0H1200V1200H0V0z"/></clipPath></defs></svg>
